src/pos-icons/office-building.svg

<svg height="24" viewBox="0 0 24 24" width="24" xmlns="http://www.w3.org/2000/svg"><path d="m5 3v18h6v-3.5h2v3.5h6v-18zm2 2h2v2h-2zm4 0h2v2h-2zm4 0h2v2h-2zm-8 4h2v2h-2zm4 0h2v2h-2zm4 0h2v2h-2zm-8 4h2v2h-2zm4 0h2v2h-2zm4 0h2v2h-2zm-8 4h2v2h-2zm8 0h2v2h-2z"/></svg>

<?xml version="1.0" encoding="UTF-8"?><!DOCTYPE svg PUBLIC "-//W3C//DTD SVG 1.1//EN" "http://www.w3.org/Graphics/SVG/1.1/DTD/svg11.dtd"><svg xmlns="http://www.w3.org/2000/svg" xmlns:xlink="http://www.w3.org/1999/xlink" version="1.1" id="mdi-office-building" width="24" height="24" viewBox="0 0 24 24"><path d="M5,3V21H11V17.5H13V21H19V3H5M7,5H9V7H7V5M11,5H13V7H11V5M15,5H17V7H15V5M7,9H9V11H7V9M11,9H13V11H11V9M15,9H17V11H15V9M7,13H9V15H7V13M11,13H13V15H11V13M15,13H17V15H15V13M7,17H9V19H7V17M15,17H17V19H15V17Z" /></svg>
